public/images/icon-share.svg

<svg preserveAspectRatio="none" width="100%" height="100%" overflow="visible" style="display: block;" viewBox="0 0 15 16.6667" fill="none" xmlns="http://www.w3.org/2000/svg">
<g id="Container">
<path id="Icon" d="M12.5 16.6667C11.8056 16.6667 11.2153 16.4236 10.7292 15.9375C10.2431 15.4514 10 14.8611 10 14.1667C10 14.0833 10.0208 13.8889 10.0625 13.5833L4.20833 10.1667C3.98611 10.375 3.72917 10.5382 3.4375 10.6562C3.14583 10.7743 2.83333 10.8333 2.5 10.8333C1.80556 10.8333 1.21528 10.5903 0.729167 10.1042C0.243056 9.61806 0 9.02778 0 8.33333C0 7.63889 0.243056 7.04861 0.729167 6.5625C1.21528 6.07639 1.80556 5.83333 2.5 5.83333C2.83333 5.83333 3.14583 5.89236 3.4375 6.01042C3.72917 6.12847 3.98611 6.29167 4.20833 6.5L10.0625 3.08333C10.0347 2.98611 10.0174 2.89236 10.0104 2.80208C10.0035 2.71181 10 2.61111 10 2.5C10 1.80556 10.2431 1.21528 10.7292 0.729167C11.2153 0.243056 11.8056 0 12.5 0C13.1944 0 13.7847 0.243056 14.2708 0.729167C14.7569 1.21528 15 1.80556 15 2.5C15 3.19444 14.7569 3.78472 14.2708 4.27083C13.7847 4.75694 13.1944 5 12.5 5C12.1667 5 11.8542 4.94097 11.5625 4.82292C11.2708 4.70486 11.0139 4.54167 10.7917 4.33333L4.9375 7.75C4.96528 7.84722 4.98264 7.94097 4.98958 8.03125C4.99653 8.12153 5 8.22222 5 8.33333C5 8.44444 4.99653 8.54514 4.98958 8.63542C4.98264 8.72569 4.96528 8.81944 4.9375 8.91667L10.7917 12.3333C11.0139 12.125 11.2708 11.9618 11.5625 11.8438C11.8542 11.7257 12.1667 11.6667 12.5 11.6667C13.1944 11.6667 13.7847 11.9097 14.2708 12.3958C14.7569 12.8819 15 13.4722 15 14.1667C15 14.8611 14.7569 15.4514 14.2708 15.9375C13.7847 16.4236 13.1944 16.6667 12.5 16.6667V16.6667M12.5 15C12.7361 15 12.934 14.9201 13.0938 14.7604C13.2535 14.6007 13.3333 14.4028 13.3333 14.1667C13.3333 13.9306 13.2535 13.7326 13.0938 13.5729C12.934 13.4132 12.7361 13.3333 12.5 13.3333C12.2639 13.3333 12.066 13.4132 11.9062 13.5729C11.7465 13.7326 11.6667 13.9306 11.6667 14.1667C11.6667 14.4028 11.7465 14.6007 11.9062 14.7604C12.066 14.9201 12.2639 15 12.5 15V15M2.5 9.16667C2.73611 9.16667 2.93403 9.08681 3.09375 8.92708C3.25347 8.76736 3.33333 8.56944 3.33333 8.33333C3.33333 8.09722 3.25347 7.89931 3.09375 7.73958C2.93403 7.57986 2.73611 7.5 2.5 7.5C2.26389 7.5 2.06597 7.57986 1.90625 7.73958C1.74653 7.89931 1.66667 8.09722 1.66667 8.33333C1.66667 8.56944 1.74653 8.76736 1.90625 8.92708C2.06597 9.08681 2.26389 9.16667 2.5 9.16667V9.16667M12.5 3.33333C12.7361 3.33333 12.934 3.25347 13.0938 3.09375C13.2535 2.93403 13.3333 2.73611 13.3333 2.5C13.3333 2.26389 13.2535 2.06597 13.0938 1.90625C12.934 1.74653 12.7361 1.66667 12.5 1.66667C12.2639 1.66667 12.066 1.74653 11.9062 1.90625C11.7465 2.06597 11.6667 2.26389 11.6667 2.5C11.6667 2.73611 11.7465 2.93403 11.9062 3.09375C12.066 3.25347 12.2639 3.33333 12.5 3.33333V3.33333M12.5 14.1667V14.1667V14.1667V14.1667V14.1667V14.1667V14.1667V14.1667V14.1667V14.1667M2.5 8.33333V8.33333V8.33333V8.33333V8.33333V8.33333V8.33333V8.33333V8.33333V8.33333M12.5 2.5V2.5V2.5V2.5V2.5V2.5V2.5V2.5V2.5V2.5" fill="var(--fill-0, #C26B38)"/>
</g>
</svg>

<svg xmlns="http://www.w3.org/2000/svg" fill="none" viewBox="0 0 15 17">
  <path fill="currentColor"
    d="M12.5 16.667a2.4 2.4 0 0 1-1.77-.73 2.4 2.4 0 0 1-.73-1.77q0-.126.063-.584l-5.855-3.416a2.47 2.47 0 0 1-1.708.666 2.4 2.4 0 0 1-1.77-.729A2.4 2.4 0 0 1 0 8.334q0-1.042.73-1.771a2.4 2.4 0 0 1 1.77-.73 2.48 2.48 0 0 1 1.708.667l5.855-3.417a1.4 1.4 0 0 1-.053-.28A4 4 0 0 1 10 2.5q0-1.042.73-1.77A2.4 2.4 0 0 1 12.5 0a2.4 2.4 0 0 1 1.77.73q.73.728.73 1.77t-.73 1.77A2.4 2.4 0 0 1 12.5 5a2.48 2.48 0 0 1-1.708-.667L4.938 7.75q.041.146.052.281a4 4 0 0 1 0 .604q-.01.135-.053.282l5.855 3.416a2.47 2.47 0 0 1 1.708-.666 2.4 2.4 0 0 1 1.77.729q.73.729.73 1.77 0 1.042-.73 1.771a2.4 2.4 0 0 1-1.77.73m0-1.667q.354 0 .594-.24t.24-.593a.8.8 0 0 0-.24-.594.8.8 0 0 0-.594-.24.8.8 0 0 0-.594.24.8.8 0 0 0-.24.594q0 .354.24.593.24.24.594.24m-10-5.833q.354 0 .594-.24t.24-.594a.8.8 0 0 0-.24-.593.8.8 0 0 0-.594-.24.8.8 0 0 0-.594.24.8.8 0 0 0-.24.593q0 .354.24.594t.594.24m10-5.834q.354 0 .594-.24.24-.239.24-.593a.8.8 0 0 0-.24-.594.8.8 0 0 0-.594-.24.8.8 0 0 0-.594.24.8.8 0 0 0-.24.594q0 .354.24.594t.594.24" />
</svg>
